public/images/gh.svg

<svg width="36" height="37" viewBox="0 0 36 37" fill="none" xmlns="http://www.w3.org/2000/svg">
<path fill-rule="evenodd" clip-rule="evenodd" d="M24.4999 34.8576V28.4409C24.4999 26.6076 24.6833 25.8742 23.5833 24.7742C28.7166 24.2242 33.6666 22.2076 33.6666 13.7742C33.6644 11.5833 32.8096 9.47931 31.2833 7.90758C31.9991 6.00451 31.9332 3.89556 31.0999 2.04091C31.0999 2.04091 29.0833 1.49091 24.6833 4.42424C20.9565 3.45365 17.0433 3.45365 13.3166 4.42424C8.91659 1.49091 6.89992 2.04091 6.89992 2.04091C6.06663 3.89556 6.00073 6.00451 6.71659 7.90758C5.19025 9.47931 4.33548 11.5833 4.33325 13.7742C4.33325 22.2076 9.28325 24.2242 14.4166 24.7742C13.3166 25.8742 13.3166 26.9742 13.4999 28.4409V34.8576" fill="#FFF8EB"/>
<path d="M22.9999 34.8576C22.9999 35.686 23.6715 36.3576 24.4999 36.3576C25.3283 36.3576 25.9999 35.686 25.9999 34.8576H22.9999ZM23.5833 24.7742L23.4235 23.2828C22.8491 23.3443 22.3611 23.7302 22.1688 24.275C21.9765 24.8197 22.1141 25.4264 22.5226 25.8349L23.5833 24.7742ZM33.6666 13.7742L35.1666 13.7742L35.1666 13.7727L33.6666 13.7742ZM31.2833 7.90758L29.8793 7.37946C29.6748 7.92309 29.8025 8.53591 30.2072 8.95258L31.2833 7.90758ZM31.0999 2.04091L32.4682 1.42616C32.2844 1.01712 31.9272 0.711754 31.4946 0.593763L31.0999 2.04091ZM24.6833 4.42424L24.3052 5.87582C24.7191 5.98362 25.1594 5.90959 25.5153 5.67232L24.6833 4.42424ZM13.3166 4.42424L12.4845 5.67232C12.8404 5.90959 13.2807 5.98362 13.6946 5.87582L13.3166 4.42424ZM6.89992 2.04091L6.50524 0.593763C6.07261 0.711754 5.71546 1.01712 5.53168 1.42616L6.89992 2.04091ZM6.71659 7.90758L7.79267 8.95258C8.19731 8.53591 8.32503 7.92309 8.12054 7.37946L6.71659 7.90758ZM4.33325 13.7742L2.83325 13.7727V13.7742H4.33325ZM14.4166 24.7742L15.4772 25.8349C15.8857 25.4264 16.0233 24.8197 15.8311 24.275C15.6388 23.7302 15.1508 23.3443 14.5764 23.2828L14.4166 24.7742ZM13.4999 28.4409H14.9999C14.9999 28.3787 14.9961 28.3166 14.9883 28.2549L13.4999 28.4409ZM11.9999 34.8576C11.9999 35.686 12.6715 36.3576 13.4999 36.3576C14.3283 36.3576 14.9999 35.686 14.9999 34.8576H11.9999ZM13.1309 32.9263C13.9186 32.6698 14.3493 31.8233 14.0928 31.0356C13.8363 30.2479 12.9899 29.8172 12.2021 30.0737L13.1309 32.9263ZM2.08975 24.561C1.29499 24.3272 0.46121 24.782 0.227456 25.5768C-0.00629859 26.3715 0.44849 27.2053 1.24325 27.439L2.08975 24.561ZM25.9999 34.8576V28.4409H22.9999V34.8576H25.9999ZM25.9999 28.4409C25.9999 27.6898 26.0526 26.7992 25.9337 26.086C25.7826 25.1796 25.3779 24.4476 24.6439 23.7136L22.5226 25.8349C22.8886 26.2009 22.9422 26.3855 22.9745 26.5792C22.9995 26.7293 23.0114 26.9277 23.0114 27.2492C23.0114 27.4077 23.0087 27.5784 23.0058 27.7804C23.0029 27.9784 22.9999 28.1999 22.9999 28.4409H25.9999ZM23.7431 26.2657C26.4095 25.98 29.3038 25.2936 31.5318 23.3645C33.8241 21.3796 35.1666 18.301 35.1666 13.7742H32.1666C32.1666 17.6809 31.034 19.8272 29.5681 21.0965C28.0377 22.4215 25.8903 23.0185 23.4235 23.2828L23.7431 26.2657ZM35.1666 13.7727C35.164 11.1921 34.1572 8.71386 32.3593 6.86257L30.2072 8.95258C31.462 10.2448 32.1648 11.9746 32.1666 13.7758L35.1666 13.7727ZM32.6872 8.43569C33.5425 6.1619 33.4638 3.64211 32.4682 1.42616L29.7317 2.65565C30.4026 4.14901 30.4557 5.84713 29.8793 7.37946L32.6872 8.43569ZM31.0999 2.04091C31.4946 0.593763 31.4932 0.593394 31.4919 0.593024C31.4914 0.592898 31.49 0.592528 31.4891 0.592277C31.4872 0.591776 31.4853 0.591271 31.4834 0.59076C31.4796 0.589739 31.4756 0.588698 31.4714 0.58764C31.4632 0.585525 31.4544 0.58334 31.4452 0.581103C31.4266 0.576628 31.4059 0.571946 31.3831 0.567185C31.3376 0.557661 31.2837 0.547844 31.2215 0.538756C31.0969 0.520559 30.9397 0.505403 30.7494 0.501175C30.368 0.492701 29.8603 0.528253 29.2229 0.666811C27.9494 0.943679 26.1731 1.62822 23.8512 3.17617L25.5153 5.67232C27.5934 4.28693 29.0255 3.77981 29.8602 3.59834C30.277 3.50773 30.5485 3.49745 30.6827 3.50043C30.7503 3.50194 30.785 3.50683 30.7879 3.50726C30.7894 3.50748 30.7831 3.50661 30.7693 3.50371C30.7623 3.50226 30.7535 3.50031 30.7428 3.49774C30.7375 3.49645 30.7317 3.49501 30.7254 3.4934C30.7223 3.4926 30.719 3.49175 30.7157 3.49086C30.714 3.49042 30.7123 3.48996 30.7105 3.48949C30.7097 3.48926 30.7084 3.4889 30.7079 3.48878C30.7066 3.48842 30.7052 3.48805 31.0999 2.04091ZM25.0613 2.97266C21.0867 1.93751 16.9132 1.93751 12.9385 2.97266L13.6946 5.87582C17.1735 4.96979 20.8264 4.96979 24.3052 5.87582L25.0613 2.97266ZM14.1486 3.17617C11.8267 1.62822 10.0505 0.943679 8.7769 0.666811C8.13953 0.528253 7.6318 0.492701 7.25045 0.501175C7.06018 0.505403 6.90294 0.520559 6.77837 0.538756C6.71614 0.547844 6.66228 0.557661 6.61672 0.567185C6.59394 0.571946 6.57327 0.576628 6.55468 0.581103C6.54539 0.58334 6.53663 0.585525 6.52839 0.58764C6.52427 0.588698 6.52028 0.589739 6.51642 0.59076C6.51449 0.591271 6.5126 0.591776 6.51073 0.592277C6.5098 0.592528 6.50843 0.592898 6.50796 0.593024C6.5066 0.593394 6.50524 0.593763 6.89992 2.04091C7.29459 3.48805 7.29325 3.48842 7.29192 3.48878C7.29149 3.4889 7.29016 3.48926 7.28929 3.48949C7.28755 3.48996 7.28584 3.49042 7.28416 3.49086C7.28079 3.49175 7.27754 3.4926 7.27441 3.4934C7.26814 3.49501 7.26233 3.49645 7.25699 3.49774C7.24631 3.50031 7.23749 3.50226 7.23057 3.50371C7.21669 3.50661 7.21045 3.50748 7.21197 3.50726C7.21486 3.50683 7.24955 3.50194 7.3171 3.50043C7.45137 3.49745 7.72281 3.50773 8.13961 3.59834C8.97435 3.77981 10.4065 4.28693 12.4845 5.67232L14.1486 3.17617ZM5.53168 1.42616C4.53606 3.64211 4.45732 6.1619 5.31263 8.43569L8.12054 7.37946C7.54414 5.84713 7.59721 4.14901 8.26816 2.65565L5.53168 1.42616ZM5.6405 6.86257C3.84268 8.71386 2.83588 11.1921 2.83325 13.7727L5.83325 13.7758C5.83509 11.9746 6.53782 10.2448 7.79267 8.95258L5.6405 6.86257ZM2.83325 13.7742C2.83325 18.301 4.17569 21.3796 6.46805 23.3645C8.69608 25.2936 11.5903 25.98 14.2568 26.2657L14.5764 23.2828C12.1095 23.0185 9.96209 22.4215 8.43179 21.0965C6.96581 19.8272 5.83325 17.6809 5.83325 13.7742H2.83325ZM13.3559 23.7136C12.6059 24.4636 12.1784 25.2801 12.004 26.1868C11.8413 27.0329 11.9179 27.8782 12.0115 28.627L14.9883 28.2549C14.8986 27.5369 14.8836 27.0989 14.95 26.7533C15.0048 26.4684 15.1272 26.1849 15.4772 25.8349L13.3559 23.7136ZM11.9999 28.4409V34.8576H14.9999V28.4409H11.9999ZM12.2021 30.0737C10.4224 30.6531 9.25723 30.6296 8.4643 30.4078C7.68114 30.1887 7.07983 29.7262 6.51091 29.072C5.86051 28.324 5.48988 27.6512 4.79748 26.7151C4.21127 25.9225 3.37565 24.9392 2.08975 24.561L1.24325 27.439C1.5157 27.5192 1.84882 27.7734 2.38552 28.499C2.81604 29.0811 3.52249 30.2072 4.2471 31.0405C5.05318 31.9675 6.12478 32.8686 7.65621 33.2969C9.17786 33.7225 10.969 33.6302 13.1309 32.9263L12.2021 30.0737Z" fill="#343434"/>
</svg>

<svg width="36" height="37" fill="none" xmlns="http://www.w3.org/2000/svg">
<path fill-rule="evenodd" clip-rule="evenodd" d="M24.5 34.858V28.44c0-1.833.183-2.567-.917-3.667 5.134-.55 10.084-2.566 10.084-11a8.433 8.433 0 0 0-2.384-5.866A7.7 7.7 0 0 0 31.1 2.04s-2.017-.55-6.417 2.383a22.55 22.55 0 0 0-11.366 0C8.917 1.491 6.9 2.041 6.9 2.041a7.7 7.7 0 0 0-.183 5.867 8.433 8.433 0 0 0-2.384 5.866c0 8.434 4.95 10.45 10.084 11-1.1 1.1-1.1 2.2-.917 3.667v6.417" fill="#FFF8EB"/><path d="M23 34.858a1.5 1.5 0 0 0 3 0h-3Zm.583-10.084-.16-1.491a1.5 1.5 0 0 0-.9 2.552l1.06-1.06Zm10.084-11h1.5v-.001l-1.5.001Zm-2.384-5.866-1.404-.529a1.5 1.5 0 0 0 .328 1.574l1.076-1.045ZM31.1 2.04l1.368-.615a1.5 1.5 0 0 0-.973-.832L31.1 2.04Zm-6.417 2.383-.378 1.452a1.5 1.5 0 0 0 1.21-.204l-.832-1.248Zm-11.366 0-.832 1.248a1.5 1.5 0 0 0 1.21.204l-.378-1.452ZM6.9 2.041 6.505.594a1.5 1.5 0 0 0-.973.832l1.368.615Zm-.183 5.867 1.076 1.045a1.5 1.5 0 0 0 .328-1.574l-1.404.529Zm-2.384 5.866-1.5-.001v.001h1.5Zm10.084 11 1.06 1.06a1.5 1.5 0 0 0-.9-2.551l-.16 1.491Zm-.917 3.667H15c0-.062-.004-.124-.012-.186l-1.488.186ZM12 34.858a1.5 1.5 0 0 0 3 0h-3Zm1.13-1.932a1.5 1.5 0 0 0-.928-2.852l.929 2.852ZM2.09 24.561a1.5 1.5 0 1 0-.847 2.878l.847-2.878ZM26 34.858V28.44h-3v6.417h3Zm0-6.417c0-.751.053-1.642-.066-2.355-.151-.906-.556-1.638-1.29-2.372l-2.121 2.12c.366.367.42.552.451.745.026.15.037.349.037.67 0 .159-.002.33-.005.531-.003.198-.006.42-.006.66h3Zm-2.257-2.175c2.667-.286 5.56-.972 7.789-2.901 2.292-1.985 3.635-5.064 3.635-9.59h-3c0 3.906-1.133 6.052-2.599 7.321-1.53 1.326-3.678 1.922-6.145 2.187l.32 2.983Zm11.424-12.493a9.933 9.933 0 0 0-2.808-6.91l-2.152 2.09a6.934 6.934 0 0 1 1.96 4.823l3-.003Zm-2.48-5.337a9.2 9.2 0 0 0-.219-7.01l-2.736 1.23a6.2 6.2 0 0 1 .147 4.723l2.808 1.057ZM31.1 2.04c.395-1.447.393-1.448.392-1.448a.157.157 0 0 1-.009-.002.79.79 0 0 0-.038-.01 2.106 2.106 0 0 0-.224-.042A3.87 3.87 0 0 0 30.75.5a6.536 6.536 0 0 0-1.526.166c-1.274.277-3.05.961-5.372 2.51l1.664 2.495c2.078-1.385 3.51-1.892 4.345-2.074.417-.09.689-.1.823-.098a.939.939 0 0 1 .105.007l-.019-.003a.87.87 0 0 1-.044-.01l-.01-.003-.005-.002h-.002c-.001 0-.003-.001.392-1.448Zm-6.039.932a24.05 24.05 0 0 0-12.123 0l.757 2.903a21.05 21.05 0 0 1 10.61 0l.756-2.903Zm-10.912.203C11.827 1.628 10.05.944 8.777.666A6.536 6.536 0 0 0 7.25.502a3.87 3.87 0 0 0-.633.066 2.107 2.107 0 0 0-.106.025l-.003.001c-.001 0-.003 0 .392 1.448.395 1.447.393 1.447.392 1.448a.287.287 0 0 1-.018.004 1.252 1.252 0 0 1-.043.01c-.014.004-.02.004-.019.004a.938.938 0 0 1 .105-.007c.134-.003.406.008.823.098.834.182 2.266.689 4.345 2.074l1.664-2.496Zm-8.617-1.75a9.2 9.2 0 0 0-.22 7.01l2.809-1.057a6.2 6.2 0 0 1 .147-4.723l-2.736-1.23Zm.109 5.437a9.933 9.933 0 0 0-2.808 6.91l3 .003a6.934 6.934 0 0 1 1.96-4.823L5.64 6.863Zm-2.808 6.911c0 4.527 1.343 7.606 3.635 9.59 2.228 1.93 5.122 2.616 7.789 2.902l.32-2.983c-2.467-.265-4.615-.861-6.145-2.187-1.466-1.269-2.599-3.415-2.599-7.322h-3Zm10.523 9.94c-.75.75-1.178 1.566-1.352 2.473-.163.846-.086 1.691.008 2.44l2.976-.372c-.09-.718-.104-1.156-.038-1.502.055-.285.177-.568.527-.918l-2.121-2.121ZM12 28.44v6.417h3V28.44h-3Zm.202 1.633c-1.78.58-2.945.556-3.738.334-.783-.22-1.384-.682-1.953-1.336-.65-.748-1.021-1.42-1.714-2.357-.586-.793-1.421-1.776-2.707-2.154l-.847 2.878c.273.08.606.334 1.143 1.06.43.582 1.136 1.708 1.861 2.542.806.927 1.878 1.828 3.41 2.256 1.52.425 3.312.333 5.474-.37l-.929-2.853Z" fill="#343434"/></svg>
